X: 4001
T: Blackthorn Stick, The
R: jig
M: 6/8
K: Amajor
e|:"A" aga "D" faf|"A" ecA "E" BAF|"A" EAA "E" FBB|"A" cAc A2 e|
"A" aga "D" baf|"A" ecA "E" BAF|"A" EAA "E" =GBB|"A" cAA A2 e:|
|:"D" fee "A" aee|"D" fee "A" aee|"D" fec "A" agf|edc "E" B2 e|
"A" aga "D" baf|"A" ecA "E" BAF|"A" EAA "E" =GBB|"A" cAA A2 e:|

